X: 37
T: Sonny's Mazurka
N: named for Dublin accordionist Sonny Brogan 1906-1965
M: 3/4 %% X:9 WJ 2015
L: 1/8
K: D
DF |\
"D"A2 AG FA | d2 dA BA |\
[1,3 "G"G2 GB "A7"AG | FG EF "D"DF :|\
[2,4 "G"G2 Gg "A7"fe | "D"d4 :|
|: Ad "^I"|\
"D"f2 fa "(G)"gf | "A"e2 eg "(D)"fe |\
[1,3 "(G)"d2 df ed | "A7"cd "(Bm)"Bc "(D)"Ad :|\
[2,4 "(G)"dc df "A7"ec | "D"d4 :|


